Adwaita++/actions/16/distribute-horizontal-node.svg

<svg fill="none" height="16" viewBox="0 0 16 16" width="16" xmlns="http://www.w3.org/2000/svg" xmlns:xlink="http://www.w3.org/1999/xlink">
  <defs>
    <clipPath id="clip0">
      <path d="m0 0h16v16h-16z"/>
    </clipPath>
  </defs>
  <g clip-path="url(#clip0)" fill="#444">
    <rect height="16" rx=".5" transform="matrix(0 -1 1 0 -10.75 10.75)" width="2" y="10.75"/>
    <path d="m0 11.75h4v4h-4z" transform="matrix(0 -1 1 0 -11.75 11.75)"/>
    <path d="m6 11.75h4v4h-4z" transform="matrix(0 -1 1 0 -5.75 17.75)"/>
    <path d="m12 11.75h4v4h-4z" transform="matrix(0 -1 1 0 .25 23.75)"/>
    <path clip-rule="evenodd" d="m2.25 6.25v8.25c0 .4142-.33579.75-.75.75-.41421 0-.75-.3358-.75-.75v-8.25c0-1.51878 1.23122-2.75 2.75-2.75h2.5c1.51878 0 2.75 1.23122 2.75 2.75v7c0 .6904.55964 1.25 1.25 1.25h2c.6904 0 1.25-.5596 1.25-1.25v-7.75c0-.41421.3358-.75.75-.75.4142 0 .75.33579.75.75v7.75c0 1.5188-1.2312 2.75-2.75 2.75h-2c-1.51878 0-2.75-1.2312-2.75-2.75v-7c0-.69036-.55964-1.25-1.25-1.25h-2.5c-.69036 0-1.25.55964-1.25 1.25z" fill-rule="evenodd"/>
    <path d="m3 1h3v1h-3z"/>
    <path d="m3 2.99999.00192-2.99998375h-.15157-.01568c-.02925-.0003-.05817.01163985-.08365.03749965l-1.17149 1.1999941c-.052.05157-.0785.15703-.07857.2625-.00007.10546.0263.21093.07823.2625l1.16996 1.19999c.02544.02588.05435.03789.0836.0375h.01568z"/>
    <path d="m6 2.99999-.00192-2.99998375h.15157.01568c.02925-.0003.05817.01163985.08365.03749965l1.17149 1.1999941c.052.05157.0785.15703.07857.2625.00007.10546-.0263.21093-.07823.2625l-1.16996 1.19999c-.02544.02588-.05435.03789-.0836.0375h-.01568z"/>
    <path d="m10 1h3v1h-3z"/>
    <path d="m10 2.99999.0019-2.99998375h-.15155-.01568c-.02925-.0003-.05817.01163985-.08365.03749965l-1.17149 1.1999941c-.052.05157-.0785.15703-.07857.2625-.00007.10546.0263.21093.07823.2625l1.16996 1.19999c.02544.02588.05435.03789.0836.0375h.01568z"/>
    <path d="m13 2.99999-.0019-2.99998375h.1515.0157c.0293-.0003.0582.01163985.0837.03749965l1.1715 1.1999941c.052.05157.0785.15703.0785.2625.0001.10546-.0263.21093-.0782.2625l-1.17 1.19999c-.0254.02588-.0543.03789-.0836.0375h-.0156z"/>
  </g>
</svg>

<svg xmlns="http://www.w3.org/2000/svg" fill="none" width="16" height="16" viewBox="0 0 16 16">
 <g clip-path="url(#clip0)">
  <rect fill="#444" width="2" height="16" y="10.75" rx=".5" transform="rotate(-90 0 10.75)"/>
  <rect fill="#444" width="4" height="4" y="11.75" transform="rotate(-90 0 11.75)"/>
  <rect fill="#444" width="4" height="4" x="6" y="11.75" transform="rotate(-90 6 11.75)"/>
  <rect fill="#444" width="4" height="4" x="12" y="11.75" transform="rotate(-90 12 11.75)"/>
  <path fill="#444" fill-rule="evenodd" d="M2.25 6.25L2.25 14.5C2.25 14.9142 1.91421 15.25 1.5 15.25V15.25C1.08579 15.25 0.75 14.9142 0.75 14.5L0.75 6.25C0.75 4.73122 1.98122 3.5 3.5 3.5H6C7.51878 3.5 8.75 4.73122 8.75 6.25V13.25C8.75 13.9404 9.30964 14.5 10 14.5H12C12.6904 14.5 13.25 13.9404 13.25 13.25V5.5C13.25 5.08579 13.5858 4.75 14 4.75V4.75C14.4142 4.75 14.75 5.08579 14.75 5.5V13.25C14.75 14.7688 13.5188 16 12 16H10C8.48122 16 7.25 14.7688 7.25 13.25L7.25 6.25C7.25 5.55964 6.69036 5 6 5H3.5C2.80964 5 2.25 5.55964 2.25 6.25Z" clip-rule="evenodd"/>
  <rect fill="#444" width="3" height="1" x="3" y="1"/>
  <path fill="#444" d="M3 2.99999L3.00192 6.24561e-06H2.85035H2.83467C2.80542 -0.000293753 2.7765 0.0116461 2.75102 0.0375059L1.57953 1.2375C1.52753 1.28907 1.50103 1.39453 1.50096 1.5C1.50089 1.60546 1.52726 1.71093 1.57919 1.7625L2.74915 2.96249C2.77459 2.98837 2.8035 3.00038 2.83275 2.99999H2.84843H3Z"/>
  <path fill="#444" d="M6 2.99999L5.99808 6.24561e-06H6.14965H6.16533C6.19458 -0.000293753 6.2235 0.0116461 6.24898 0.0375059L7.42047 1.2375C7.47247 1.28907 7.49897 1.39453 7.49904 1.5C7.49911 1.60546 7.47274 1.71093 7.42081 1.7625L6.25085 2.96249C6.22541 2.98837 6.1965 3.00038 6.16725 2.99999H6.15157H6Z"/>
  <rect fill="#444" width="3" height="1" x="10" y="1"/>
  <path fill="#444" d="M10 2.99999L10.0019 6.24561e-06H9.85035H9.83467C9.80542 -0.000293753 9.7765 0.0116461 9.75102 0.0375059L8.57953 1.2375C8.52753 1.28907 8.50103 1.39453 8.50096 1.5C8.50089 1.60546 8.52726 1.71093 8.57919 1.7625L9.74915 2.96249C9.77459 2.98837 9.8035 3.00038 9.83275 2.99999H9.84843H10Z"/>
  <path fill="#444" d="M13 2.99999L12.9981 6.24561e-06H13.1496H13.1653C13.1946 -0.000293753 13.2235 0.0116461 13.249 0.0375059L14.4205 1.2375C14.4725 1.28907 14.499 1.39453 14.499 1.5C14.4991 1.60546 14.4727 1.71093 14.4208 1.7625L13.2508 2.96249C13.2254 2.98837 13.1965 3.00038 13.1672 2.99999H13.1516H13Z"/>
 </g>
 <defs>
  <clipPath id="clip0">
   <rect fill="#fff" width="16" height="16"/>
  </clipPath>
 </defs>
</svg>
